usr/share/icons/biglinux-icons-material-dark/symbolic/actions/insert-horizontal-rule.svg

<svg xmlns="http://www.w3.org/2000/svg" viewBox="0 0 16 16">
<defs id="defs3051">
<style id="current-color-scheme" type="text/css">
.ColorScheme-Contrast{color:#dedede}
</style>
</defs>
<path d="M2 2v6h12V2zm1 1h1v2h1V3h2v2h1V3h2v2h1V3h2v4H3zm8 6v2H9v1h2v2h1v-2h2v-1h-2V9z" class="ColorScheme-Contrast" style="fill:currentColor;fill-opacity:1;stroke:none"/>
</svg>

<svg xmlns="http://www.w3.org/2000/svg" viewBox="0 0 16 16">
  <defs id="defs3051">
    <style type="text/css" id="current-color-scheme">
      .ColorScheme-Text {
        color:#dedede;
      }
      </style>
  </defs>
 <path style="fill:currentColor;fill-opacity:1;stroke:none" 
     d="M 2 2 L 2 8 L 14 8 L 14 2 L 2 2 z M 3 3 L 4 3 L 4 5 L 5 5 L 5 3 L 7 3 L 7 5 L 8 5 L 8 3 L 10 3 L 10 5 L 11 5 L 11 3 L 13 3 L 13 7 L 3 7 L 3 3 z M 11 9 L 11 11 L 9 11 L 9 12 L 11 12 L 11 14 L 12 14 L 12 12 L 14 12 L 14 11 L 12 11 L 12 9 L 11 9 z "
     class="ColorScheme-Text"
     />
</svg>
